build/documents/CatalogExtOutline.svg

<svg xmlns="http://www.w3.org/2000/svg" fill="none" viewBox="0 0 24 24" focusable="false"><path d="M0 0H24V24H0z"/><path fill="#74767B" fill-rule="evenodd" d="M6.81018 3.05737C5.2196 3.05737 3.93018 4.3468 3.93018 5.93737L3.93018 17.4177C3.93018 19.0083 5.2196 20.2977 6.81018 20.2977L11.6074 20.2977C11.9521 20.2977 12.2314 20.0183 12.2314 19.6737C12.2314 19.3291 11.9521 19.0497 11.6074 19.0497L6.81018 19.0497C5.90885 19.0497 5.17818 18.319 5.17818 17.4177L5.17818 5.93737C5.17818 5.03605 5.90885 4.30537 6.81018 4.30537L16.4048 4.30537C17.3061 4.30537 18.0368 5.03605 18.0368 5.93737L18.0368 11.6776C18.0368 12.0222 18.3161 12.3016 18.6608 12.3016C19.0054 12.3016 19.2848 12.0222 19.2848 11.6776L19.2848 5.93737C19.2848 4.3468 17.9953 3.05737 16.4048 3.05737L6.81018 3.05737ZM7.39424 15.324C7.39424 15.855 7.82468 16.2855 8.35564 16.2855C8.88662 16.2855 9.31705 15.855 9.31705 15.324C9.31705 14.7931 8.88662 14.3627 8.35564 14.3627C7.82468 14.3627 7.39424 14.7931 7.39424 15.324ZM10.5733 11.7075C10.5733 11.3629 10.8527 11.0835 11.1973 11.0835L15.0673 11.0835C15.4119 11.0835 15.6913 11.3629 15.6913 11.7075C15.6913 12.0522 15.4119 12.3315 15.0673 12.3315L11.1973 12.3315C10.8527 12.3315 10.5733 12.0522 10.5733 11.7075ZM7.39424 11.6776C7.39424 12.2086 7.82468 12.6389 8.35564 12.6389C8.88662 12.6389 9.31705 12.2086 9.31705 11.6776C9.31705 11.1466 8.88662 10.7161 8.35564 10.7161C7.82468 10.7161 7.39424 11.1466 7.39424 11.6776ZM10.5733 8.06103C10.5733 7.7164 10.8527 7.43703 11.1973 7.43703L15.0673 7.43703C15.4119 7.43703 15.6913 7.7164 15.6913 8.06103C15.6913 8.40565 15.4119 8.68503 15.0673 8.68503L11.1973 8.68503C10.8527 8.68503 10.5733 8.40565 10.5733 8.06103ZM7.39424 8.03102C7.39424 8.56198 7.82468 8.99243 8.35564 8.99243C8.88662 8.99243 9.31705 8.56198 9.31705 8.03102C9.31705 7.50005 8.88662 7.06962 8.35564 7.06962C7.82468 7.06962 7.39424 7.50005 7.39424 8.03102ZM13.8049 16.9146C13.8049 16.5699 14.0842 16.2906 14.4289 16.2906L17.9488 16.2906L16.5237 14.9039C16.2767 14.6636 16.2713 14.2684 16.5116 14.0215C16.7519 13.7745 17.147 13.769 17.394 14.0094L19.9819 16.5274C20.1056 16.6477 20.1739 16.814 20.1706 16.9865C20.1673 17.159 20.0928 17.3225 19.9646 17.4381L17.189 19.9409C16.933 20.1717 16.5385 20.1513 16.3077 19.8954C16.0769 19.6394 16.0973 19.2449 16.3532 19.0141L17.9895 17.5386L14.4289 17.5386C14.0842 17.5386 13.8049 17.2591 13.8049 16.9146Z"/></svg>

<svg xmlns="http://www.w3.org/2000/svg" fill="none" viewBox="0 0 24 24" focusable="false"><path fill="#74767B" fill-rule="evenodd" d="M6.81 3.05c-1.6 0-2.88 1.29-2.88 2.88v11.48c0 1.59 1.28 2.88 2.88 2.88h4.79a.625.625 0 1 0 0-1.25H6.81c-.91 0-1.64-.73-1.64-1.63V5.93c0-.9.73-1.63 1.64-1.63h9.59c.9 0 1.63.73 1.63 1.63v5.74a.625.625 0 1 0 1.25 0V5.93a2.88 2.88 0 0 0-2.88-2.88zm.58 12.27a.96.96 0 1 0 1.92 0 .96.96 0 0 0-1.92 0m3.18-3.62c0-.34.28-.62.62-.62h3.87a.625.625 0 1 1 0 1.25h-3.87c-.34 0-.62-.28-.62-.63m-3.18-.03a.96.96 0 1 0 1.92 0 .96.96 0 0 0-1.92 0m3.18-3.61c0-.35.28-.63.62-.63h3.87a.625.625 0 1 1 0 1.25h-3.87c-.34 0-.62-.28-.62-.62m-3.18-.03a.96.96 0 0 0 1.92 0c0-.53-.43-.97-.96-.97s-.96.44-.96.97m6.41 8.88c0-.35.28-.62.62-.62h3.52l-1.42-1.39a.62.62 0 0 1-.01-.88c.24-.25.63-.26.88-.02l2.59 2.52c.12.12.19.29.19.46-.01.17-.08.34-.21.45l-2.78 2.51a.62.62 0 0 1-.88-.05.62.62 0 0 1 .05-.88l1.63-1.48h-3.56c-.34 0-.62-.28-.62-.62"/></svg>
